!!! OTL: Literature120
!!! Chapter: 5
!!! Section: IV
!!! Page: 373
!!! Mode: 
!!! Encoder: DJB
**kern
*staff1
*I"Piano
=1-
*clefG2
*k[b-e-a-]
*E-:
*M4/4
4e-/
4g/
4a-/
4cc\
=2
4an/
4b-\
4cc\
4ee-\
=3
4b-\
4g/
8a-/L
8g/J
4f/
=4
2g/
4.B-/
8r
=5
4e-/
4g/
4a-/
4cc\
=6
4an/
4b-\
4ff\
4dd-\
=7
4cc\
4ee-\
8dd-\L
8cc\J
4b-\
=8
2a-/
4g/
4f/
=9
4e-/
4r
2r
==
*-
